X:859
T:Sweetheart Reel, The
T:Temple Hill
R:reel
S:Session in Dublin
H:Also played in Edor. See also #860 with two parts.
Z:id:hn-reel-859
M:C|
L:1/8
K:Ador
EAAB e2dB | e2dB GABG | EAAB ~e3f |1 gedB BAAG :|2 gedB BAA2 ||
|: ea~a2 b2ag | gedB GABG |1 ea~a2 b2ag | gedB BA~A2 :|2 ea~a2 gaba | gedB ~A3B ||
|: c3A ~B3G | AcBA GE~E2 |1 cA~A2 BG~G2 | AcBG ~A3B :|2 GBAc Bdge | dBGB ~A3G ||
P:variations
|: EAAB eBdB | eBdB GABG | EAAB edef |1 gedB BAAG :|2 gedB BAA2 ||
|: ~a3c' b2ag | gedB GABd |1 ea~a2 agbg | gedB BA~A2 :|2 ea~a2 gaba | gedB ~A3B ||
|: c3A ~B3G | AcBA GE~E2 |1 cA~A2 BGGB | AcBG ~A3B :|2 ~G3A Bdge | dBGB ~A3G ||

